X: 11
T: Missa Ave regina celorum &mdash; Gloria
C: Gaspar van Weerbeke
%%abc-version 2.0
%%abcx-abcm2ps-target-version 5.9.1 (29 Sep 2008)
%%abc-creator hum2abc beta
%%abcx-conversion-date 2022/03/06 13:05:55
%%abc-copyright Copyright 2014, Pavanello, Agnese
%%abc-edited-by Roland Mair-Gruber
%%humdrum-veritas 2829296422
%%humdrum-veritas-data 4146245860
%%linebreak <none>
%%barnumbers 0
L: 1/4
M: 3/2
N: Derived from Gas0101b-Missa_Ave_regina_celorum-Gloria.krn
%%staves [1 2 3 4]
V: 1 clef=treble-8
V: 2 clef=treble-8
V: 3 clef=bass
V: 4 clef=bass
K: F
[V:1] F6 | 
[V:2] F6- | 
[V:3] z6 | 
[V:4] z6 | 
[V:1] A>Bc>ABG- | 
[V:2] F2E>CDE- | 
[V:3] z6 | 
[V:4] z6 | 
[V:1] GcAB>AG | 
[V:2] EC2D2E | 
[V:3] z6 | 
[V:4] z6 | 
[V:1] F2zFG2 | 
[V:2] F>EC2z2 | 
[V:3] z6 | 
[V:4] F,,4E,,2 | 
[V:1] A2B4 | 
[V:2] C2B,D2B, | 
[V:3] z6 | 
[V:4] F,,2G,,4 | 
[V:1] Ac2A2G | 
[V:2] C>DEFD3/E/ | 
[V:3] z6 | 
[V:4] A,,>B,,C,D,B,,2 | 
[V:1] AB>AFG2 | 
[V:2] FG2F2E | 
[V:3] z6 | 
[V:4] A,,G,,2A,,B,,C, | 
[V:1] F2zBAG- | 
[V:2] F2D2Cc | 
[V:3] F,4E,3/C,/ | 
[V:4] D,/C,/B,,/A,,/B,,2C,3/B,,/ | 
[V:1] Gc2B/A/G2 | 
[V:2] BA2<c2B/A/ | 
[V:3] D,C,2F,2E, | 
[V:4] G,,A,,F,,2zC,- | 
[V:1] z2g4 | 
[V:2] G>A B/A/G/F<ED/ | 
[V:3] E,2z2z2 | 
[V:4] C,B,,/A,,/G,,2C,2 | 
[V:1] aa>gfe2 | 
[V:2] FcA>Bc2 | 
[V:3] F,4G,2- | 
[V:4] z2z2C,2 | 
[V:1] d2zc>de- | 
[V:2] z2c2A2 | 
[V:3] G,2A,4 | 
[V:4] B,,2A,,2F,,C,- | 
[V:1] e/d<fe<cd/e- | 
[V:2] GFA>GE3/F/ | 
[V:3] z2A,3G,- | 
[V:4] C,/B,,<D,C,<A,,B,,/C,- | 
[V:1] e/f/g2f2e | 
[V:2] G>F E/D/CDE | 
[V:3] G,/A,/B,2A,G,2 | 
[V:4] C,/B,,/G,,2A,,B,,C, | 
[V:1] f4z2 | 
[V:2] CD2CC2 | 
[V:3] F,4z2 | 
[V:4] F,,B,,2A,,F,,2 | 
[V:1] f3e/d/c2 | 
[V:2] zFA>BcA- | 
[V:3] F,6- | 
[V:4] z6 | 
[V:1] d2egfe | 
[V:2] AFG>ABc | 
[V:3] F,2E,>C,D,E,- | 
[V:4] z6 | 
[V:1] g2efd3/c/ | 
[V:2] Gc>BB>AG | 
[V:3] E,C,2D,2E, | 
[V:4] z6 | 
[V:1] A3c2=B | 
[V:2] F2F2D2 | 
[V:3] F,4z2 | 
[V:4] z2F,,2G,,2 | 
[V:1] c>B A/G/FEF- | 
[V:2] C2zCB,C- | 
[V:3] z6 | 
[V:4] A,,4G,,A,,- | 
[V:1] FG2F2E | 
[V:2] CD2C2B, | 
[V:3] z6 | 
[V:4] A,,/G,,<B,,A,,/F,,G,,2 | 
[V:1] FAGB2A/G/ | 
[V:2] CD_E4 | 
[V:3] F,2G,4 | 
[V:4] F,,2_E,,4 | 
[V:1] F2zABc- | 
[V:2] C2zEDE- | 
[V:3] A,4G,A,- | 
[V:4] F,,>G,, A,,/B,,/C,B,,A,, | 
[V:1] c/B<dc<_ed/c/B/ | 
[V:2] EFG/F/_E/D/_E2 | 
[V:3] A,/G,<B,A,/G,/F,/G,2 | 
[V:4] C,B,,G,,2zC, | 
[V:1] A2cdef- | 
[V:2] FA2FGA- | 
[V:3] F,4z2 | 
[V:4] D,>E,F,D,C,F,- | 
[V:1] f/e/c2de3/f/ | 
[V:2] AF>EDC2 | 
[V:3] F,4G,2- | 
[V:4] F,/G,<A,G,/F,E,2 | 
[V:1] g>f e/d/c2f | 
[V:2] C2zc>BA | 
[V:3] G,2A,4 | 
[V:4] zC,>B,,A,,/G,,/F,,2 | 
[V:1] ed2cd2 | 
[V:2] G>FE2D2 | 
[V:3] B,2A,2G,2 | 
[V:4] G,,2A,,2B,,2 | 
[V:1] f2ea2g/f/ | 
[V:2] Cc2AF2 | 
[V:3] A,6 | 
[V:4] A,,2zF,>E,D, | 
[V:1] e2zg>fd | 
[V:2] G2C2z2 | 
[V:3] C4B,2 | 
[V:4] C,>D,E,>F,G,2 | 
[V:1] cfed2c- | 
[V:2] cAB>AGE | 
[V:3] A,2G,4 | 
[V:4] A,F,G,2E,C, | 
[V:1] c=Bc2zA- | 
[V:2] D2E2Fc- | 
[V:3] F,2G,2A,2 | 
[V:4] D,2C,2F,,2 | 
[V:1] AFB2Ac- | 
[V:2] cAG2F3/E/ | 
[V:3] F,2z2z2 | 
[V:4] F,,2_E,,2F,,3/G,,/ | 
[V:1] cAG2Fc- | 
[V:2] C>D E/F/GAF- | 
[V:3] z6 | 
[V:4] A,,/B,,<C,D,/E,F,3/G,/ | 
[V:1] c/d/ef>e d/c/c- | 
[V:2] FCDB,2F- | 
[V:3] z6 | 
[V:4] A,G,F,B,2A,- | 
[V:1] c=BcAG2 | 
[V:2] FGCFC2 | 
[V:3] z6 | 
[V:4] A,G,A,>G,E,2 | 
[V:1] zFA>Bcd | 
[V:2] c4zB | 
[V:3] F,6- | 
[V:4] F,2F,,>G,,A,,B,, | 
[V:1] cd>ef>ec- | 
[V:2] cBd>cA2- | 
[V:3] F,6 | 
[V:4] A,,B,,>C,D,>E,F,- | 
[V:1] cd>ef>ed- | 
[V:2] A2BAFB- | 
[V:3] F,4F,2 | 
[V:4] F,/E,/D,/C,/B,,D,>C,B,,/A,,/ | 
[V:1] d/c/B/A/Gc2=B | 
[V:2] B/c/dcG3 | 
[V:3] D,2E,2D,2 | 
[V:4] B,,2C,2G,,2 | 
[V:1] c2z2g2 | 
[V:2] AGE2C2 | 
[V:3] C,6- | 
[V:4] zG,G,A,G,E,- | 
[V:1] age2c3/B/ | 
[V:2] zGAGA2 | 
[V:3] C,6 | 
[V:4] E,2<C,2A,,3/G,,/ | 
[V:1] GAGc2A | 
[V:2] GFzF3 | 
[V:3] C,6 | 
[V:4] E,,F,,E,,F,,>G,,A,, | 
[V:1] B>cdc>de | 
[V:2] GDGA3 | 
[V:3] D,3E,3 | 
[V:4] G,,B,,2G,,C,2 | 
[V:1] d>efe>fg | 
[V:2] BF/G/ A/B/cFc | 
[V:3] F,3G,3 | 
[V:4] B,,D,2C,E,2 | 
[V:1] fa2f2e | 
[V:2] dc2=Bc2 | 
[V:3] A,2F,2G,2 | 
[V:4] D,F,2D,C,2 | 
[V:1] f2z2a2 | 
[V:2] AFABc2 | 
[V:3] F,6 | 
[V:4] zD,2B,,A,,2 | 
[V:1] bg2ed2 | 
[V:2] B_edc2=B | 
[V:3] G,6- | 
[V:4] G,,>A,,B,,C,G,,2 | 
[V:1] ce2d2c | 
[V:2] c2G>FE2 | 
[V:3] G,6 | 
[V:4] C,2z2C,2 | 
[V:1] d2d>ef2 | 
[V:2] D>EF4 | 
[V:3] A,6 | 
[V:4] F,2z2D,2 | 
[V:1] d2g>fdB- | 
[V:2] z2zGF3/_E/ | 
[V:3] B,6 | 
[V:4] G,2_E,>D,B,,3/C,/ | 
[V:1] B/c/d2Ggd | 
[V:2] FGDG2F- | 
[V:3] B,6 | 
[V:4] D,G,,D,_E,>D,B,, | 
[V:1] _e2dgfg- | 
[V:2] F_EFGAB | 
[V:3] A,2B,2z2 | 
[V:4] C,2B,,_E,D,G, | 
[V:1] ga>gf2e/d/ | 
[V:2] GF>GA/B<cd/ | 
[V:3] C3A,>G,F, | 
[V:4] C,F,2F,,>G,,A,,/B,,/ | 
[V:1] cfgf2e | 
[V:2] efc4 | 
[V:3] E,D,C,F,G,2 | 
[V:4] C,D,E,F,C,2 | 
[V:1] f6 ||  
[V:2] c6 ||  
[V:3] F,6 ||  
[V:4] F,,6 ||  
[V:1] [M:2/2]f4- | 
[V:2] [M:2/2]c2c3/B/ | 
[V:3] [M:2/2]F,4- | 
[V:4] [M:2/2]F,,2F,,3/G,,/ | 
[V:1] f4 | 
[V:2] cd>cA- | 
[V:3] F,4 | 
[V:4] A,,B,,>C,D,- | 
[V:1] f2f2 | 
[V:2] A/G/F/E<DE/ | 
[V:3] A,4 | 
[V:4] D,/E,<F,E,/D,/C,/ | 
[V:1] f2f2 | 
[V:2] F2F2 | 
[V:3] B,4 | 
[V:4] D,2D,2 | 
[V:1] e3f | 
[V:2] G2c2- | 
[V:3] C4- | 
[V:4] C,4 | 
[V:1] g2a2- | 
[V:2] c2A2 | 
[V:3] C4 | 
[V:4] E,2F,2 | 
[V:1] agg2- | 
[V:2] B2d2- | 
[V:3] B,4 | 
[V:4] G,4 | 
[V:1] g2f2 | 
[V:2] d4 | 
[V:3] A,4 | 
[V:4] D,4 | 
[V:1] g>f_ed/c/ | 
[V:2] B2c2 | 
[V:3] G,4 | 
[V:4] _E,4 | 
[V:1] B2zB | 
[V:2] d2D2 | 
[V:3] F,4 | 
[V:4] D,4 | 
[V:1] c3B/A/ | 
[V:2] _E3D/C/ | 
[V:3] G,4- | 
[V:4] C,4 | 
[V:1] B/A/G/F/_E2 | 
[V:2] _E>DC2 | 
[V:3] G,4 | 
[V:4] z4 | 
[V:1] F3G | 
[V:2] z2c2- | 
[V:3] A,4 | 
[V:4] F,,2F,,2- | 
[V:1] A>Bc2 | 
[V:2] c2A2 | 
[V:3] F,4 | 
[V:4] F,,G,,A,,2 | 
[V:1] d>c B/A/B- | 
[V:2] F2zG- | 
[V:3] z4 | 
[V:4] B,,>A,, G,,/F,,/_E,,- | 
[V:1] BAG2 | 
[V:2] GF2E | 
[V:3] z4 | 
[V:4] E,,F,,C,2 | 
[V:1] F2z2 | 
[V:2] F>GA2- | 
[V:3] F,4 | 
[V:4] zD,>E,F,- | 
[V:1] f2f2 | 
[V:2] A2B2 | 
[V:3] D,4 | 
[V:4] F,/E,/D,/C,<B,,A,,/ | 
[V:1] eg2c | 
[V:2] zG>Ac | 
[V:3] E,4 | 
[V:4] C,4 | 
[V:1] df2e/d/ | 
[V:2] Bd>AB | 
[V:3] D,4 | 
[V:4] z2F,2 | 
[V:1] ec2B/A/ | 
[V:2] c2z2 | 
[V:3] C,4- | 
[V:4] G,A,2G,/F,/ | 
[V:1] G2A2- | 
[V:2] c4 | 
[V:3] C,4 | 
[V:4] E,3C, | 
[V:1] AFB2- | 
[V:2] A2F2 | 
[V:3] D,4 | 
[V:4] F,2B,,2 | 
[V:1] BGc2- | 
[V:2] G2C2- | 
[V:3] E,4 | 
[V:4] z2A,,2 | 
[V:1] cAd2- | 
[V:2] CF2D- | 
[V:3] F,4 | 
[V:4] F,,2B,,2 | 
[V:1] dB_ed- | 
[V:2] DG>AB | 
[V:3] G,4- | 
[V:4] G,,2C,B,, | 
[V:1] dc2=B | 
[V:2] GCDF- | 
[V:3] G,2F,2 | 
[V:4] C,_E,D,2 | 
[V:1] c4 | 
[V:2] FEE3/D/ | 
[V:3] G,4 | 
[V:4] C,4 | 
[V:1] A3A | 
[V:2] F2F2- | 
[V:3] F,4 | 
[V:4] F,,3F,, | 
[V:1] A2F2 | 
[V:2] FFF2 | 
[V:3] z4 | 
[V:4] F,,2B,,2- | 
[V:1] B4 | 
[V:2] D2G2- | 
[V:3] z4 | 
[V:4] B,,2G,,2 | 
[V:1] G2c2- | 
[V:2] G2E2 | 
[V:3] z4 | 
[V:4] C,4 | 
[V:1] c2A2 | 
[V:2] C2c2- | 
[V:3] z4 | 
[V:4] A,,2F,,2 | 
[V:1] F2f2- | 
[V:2] c2A2 | 
[V:3] z4 | 
[V:4] F,4 | 
[V:1] fd2B- | 
[V:2] FB>AG- | 
[V:3] z4 | 
[V:4] D,2B,,2- | 
[V:1] BFGB | 
[V:2] GF2E | 
[V:3] z4 | 
[V:4] B,,A,,G,,2 | 
[V:1] A>Bcd | 
[V:2] F2z2 | 
[V:3] F,4 | 
[V:4] F,,>G,,A,,B,, | 
[V:1] edf2 | 
[V:2] AB2c- | 
[V:3] E,F,2G,- | 
[V:4] C,D,2C,- | 
[V:1] efe2 | 
[V:2] cBc2 | 
[V:3] G,F,G,2 | 
[V:4] C,D,C,3/D,/ | 
[V:1] d2cd- | 
[V:2] FGEF- | 
[V:3] A,2G,A,- | 
[V:4] F,E,2D,- | 
[V:1] d2e2 | 
[V:2] FDC2 | 
[V:3] A,B,2A, | 
[V:4] D,B,,C,2 | 
[V:1] dg2f | 
[V:2] B,2D2 | 
[V:3] B,2A,2 | 
[V:4] G,,2D,,2 | 
[V:1] ed2c- | 
[V:2] EF>EC | 
[V:3] G,A,2G,- | 
[V:4] z4 | 
[V:1] c=Bc2- | 
[V:2] D2C2 | 
[V:3] G,F,G,2 | 
[V:4] z2C,2 | 
[V:1] cB/A/G2 | 
[V:2] zc>BG | 
[V:3] F,F,2E, | 
[V:4] A,,F,,C,2 | 
[V:1] z2F2- | 
[V:2] A>FAc- | 
[V:3] F,4 | 
[V:4] F,,4 | 
[V:1] F2G2 | 
[V:2] cABG | 
[V:3] z4 | 
[V:4] F,,2_E,,2 | 
[V:1] Ac2A | 
[V:2] F2F2 | 
[V:3] z4 | 
[V:4] F,,2z2 | 
[V:1] BGF2 | 
[V:2] _E2Fc- | 
[V:3] z2F,2- | 
[V:4] z4 | 
[V:1] zf2e | 
[V:2] cAG2 | 
[V:3] F,2G,2 | 
[V:4] z4 | 
[V:1] f3e | 
[V:2] F2A2 | 
[V:3] A,4 | 
[V:4] F,,4 | 
[V:1] d2c2- | 
[V:2] G2C3/D/ | 
[V:3] B,2A,2- | 
[V:4] G,,2A,,C,- | 
[V:1] c2B2 | 
[V:2] EFGE | 
[V:3] A,2G,2 | 
[V:4] C,A,,B,,G,, | 
[V:1] Ac2B | 
[V:2] F>ECD- | 
[V:3] A,2z2 | 
[V:4] F,,2z2 | 
[V:1] AFG2 | 
[V:2] D/C/DE2- | 
[V:3] z4 | 
[V:4] z4 | 
[V:1] A2z2 | 
[V:2] E2z2 | 
[V:3] C3B, | 
[V:4] A,,>B,,C,D,- | 
[V:1] z4 | 
[V:2] z4 | 
[V:3] A,F,G,2 | 
[V:4] D,/C,/D,E,2 | 
[V:1] z4 | 
[V:2] E2EF- | 
[V:3] A,4- | 
[V:4] A,,>B,,C,D,- | 
[V:1] z2a2 | 
[V:2] FEE2 | 
[V:3] A,4 | 
[V:4] D,C,A,,3/B,,/ | 
[V:1] g2a2 | 
[V:2] E2F2 | 
[V:3] z2A,2 | 
[V:4] C,2F,,2 | 
[V:1] b2af | 
[V:2] G2FF- | 
[V:3] G,2A,2 | 
[V:4] _E,,2F,,2 | 
[V:1] g2ff- | 
[V:2] FEF2 | 
[V:3] B,2A,F, | 
[V:4] z2F,,2 | 
[V:1] fef2- | 
[V:2] z2A2- | 
[V:3] G,2F,2- | 
[V:4] C,2D,2- | 
[V:1] f_ecd- | 
[V:2] ABcB- | 
[V:3] F,4 | 
[V:4] D,C,A,,B,,- | 
[V:1] d/c/de2 | 
[V:2] B/A/G/F/E2 | 
[V:3] G,4 | 
[V:4] B,,B,,C,2 | 
[V:1] c2f2 | 
[V:2] E2F2 | 
[V:3] A,2F,2 | 
[V:4] A,,2A,2- | 
[V:1] e2e2 | 
[V:2] C2zc | 
[V:3] G,2E,2 | 
[V:4] A,G,G,2- | 
[V:1] f3d | 
[V:2] d/c/B/A/B2 | 
[V:3] D,4 | 
[V:4] G,2F,2 | 
[V:1] e2d2- | 
[V:2] c2B2 | 
[V:3] C,2G,2 | 
[V:4] G,2G,,2 | 
[V:1] dcc2- | 
[V:2] A2G2- | 
[V:3] E,2C,2 | 
[V:4] A,,2C,2 | 
[V:1] c2=B2 | 
[V:2] G2G2 | 
[V:3] D,4 | 
[V:4] G,,4 | 
[V:1] c4 | 
[V:2] E3C | 
[V:3] C,4 | 
[V:4] G,2A,2- | 
[V:1] c3d | 
[V:2] FGAB | 
[V:3] z4 | 
[V:4] A,G,F,E,/D,/ | 
[V:1] efg2 | 
[V:2] cd>cB | 
[V:3] z4 | 
[V:4] C,B,,2A,,/G,,/ | 
[V:1] a>gef | 
[V:2] Ac>BA | 
[V:3] z4 | 
[V:4] F,,2C,D, | 
[V:1] g>fde | 
[V:2] GB>AG | 
[V:3] z4 | 
[V:4] E,>D,B,,C, | 
[V:1] f>_ecd | 
[V:2] F_A>GF | 
[V:3] z4 | 
[V:4] D,F,>_E,D, | 
[V:1] _e>dBc | 
[V:2] _EG>F_E | 
[V:3] z4 | 
[V:4] C,>B,,G,,A,, | 
[V:1] d>cA2 | 
[V:2] DF3 | 
[V:3] z4 | 
[V:4] B,,>A,,F,,2 | 
[V:1] Gc2=B | 
[V:2] CED2 | 
[V:3] z4 | 
[V:4] z2F,2 | 
[V:1] c2de | 
[V:2] C2zc- | 
[V:3] z4 | 
[V:4] G,2F,E, | 
[V:1] cf2e | 
[V:2] cB/A/G2 | 
[V:3] z4 | 
[V:4] F,2C,2 | 
[V:1] f4 | 
[V:2] A3F | 
[V:3] F,4- | 
[V:4] F,,4 | 
[V:1] c2d2 | 
[V:2] A2B3/c/ | 
[V:3] F,4 | 
[V:4] F,,2B,,2- | 
[V:1] d2e2- | 
[V:2] d2c2- | 
[V:3] G,4 | 
[V:4] B,,G,,C,2- | 
[V:1] e2f2 | 
[V:2] cBA2 | 
[V:3] A,4 | 
[V:4] C,A,,D,2 | 
[V:1] g2a3/b/ | 
[V:2] G2z2 | 
[V:3] B,2C2 | 
[V:4] G,,2C,3/D,/ | 
[V:1] c'2ab- | 
[V:2] z4 | 
[V:3] C3D- | 
[V:4] E,F,>E,D,/C,/ | 
[V:1] b/a/g/f<ed/ | 
[V:2] d2c2 | 
[V:3] D/C/B,/A,/G,2 | 
[V:4] B,,>A,,C,2 | 
[V:1] f2g2- | 
[V:2] A2G2- | 
[V:3] F,2B,2- | 
[V:4] F,,2_E,2- | 
[V:1] gff2- | 
[V:2] G2c2- | 
[V:3] B,2A,2 | 
[V:4] E,2F,2 | 
[V:1] f2e2 | 
[V:2] c4 | 
[V:3] G,4 | 
[V:4] C,4 | 
[V:1] f4 |]  
[V:2] A4 & c4 |]  
[V:3] F,4 |]  
[V:4] F,,4 |]  


